src/svg/28/payment_card_outline_28.svg

<?xml version="1.0" encoding="UTF-8"?>
<svg width="28px" height="28px" viewBox="0 0 28 28" version="1.1" xmlns="http://www.w3.org/2000/svg" xmlns:xlink="http://www.w3.org/1999/xlink">
    <!-- Generator: Sketch 63.1 (92452) - https://sketch.com -->
    <title>payment_card_outline_28</title>
    <desc>Created with Sketch.</desc>
    <g id="Page-1" stroke="none" stroke-width="1" fill="none" fill-rule="evenodd">
        <g id="payment_card_outline_28">
            <rect x="0" y="0" width="28" height="28"></rect>
            <path d="M19.590287,4 C21.8190838,4 22.6272994,4.23206403 23.4421143,4.66783176 C24.2569291,5.10359949 24.8964005,5.74307093 25.3321682,6.55788574 C25.767936,7.37270056 26,8.18091615 26,10.409713 L26,17.590287 C26,19.8190838 25.767936,20.6272994 25.3321682,21.4421143 C24.8964005,22.2569291 24.2569291,22.8964005 23.4421143,23.3321682 C22.6272994,23.767936 21.8190838,24 19.590287,24 L8.409713,24 C6.18091615,24 5.37270056,23.767936 4.55788574,23.3321682 C3.74307093,22.8964005 3.10359949,22.2569291 2.66783176,21.4421143 C2.23206403,20.6272994 2,19.8190838 2,17.590287 L2,10.409713 C2,8.18091615 2.23206403,7.37270056 2.66783176,6.55788574 C3.10359949,5.74307093 3.74307093,5.10359949 4.55788574,4.66783176 C5.37270056,4.23206403 6.18091615,4 8.409713,4 L19.590287,4 Z M23.999,13 L3.999,13 L4,18.1541722 C4,19.4914503 4.13923842,19.9763797 4.40069906,20.4652686 C4.66215969,20.9541574 5.04584256,21.3378403 5.53473144,21.5993009 C5.99306478,21.8444203 6.44791805,21.9821178 7.60486756,21.9983725 L7.8458278,22 L20.1541722,22 C21.4914503,22 21.9763797,21.8607616 22.4652686,21.5993009 C22.9541574,21.3378403 23.3378403,20.9541574 23.5993009,20.4652686 C23.8444203,20.0069352 23.9821178,19.5520819 23.9983725,18.3951324 L24,18.1541722 L23.999,13 Z M8.74539808,16 C9.15834863,16 9.32545989,16.0464128 9.48842285,16.1335664 C9.65138581,16.2207199 9.7792801,16.3486142 9.86643365,16.5115771 C9.95358719,16.6745401 10,16.8416514 10,17.2546019 L10,17.7453981 C10,18.1583486 9.95358719,18.3254599 9.86643365,18.4884229 C9.7792801,18.6513858 9.65138581,18.7792801 9.48842285,18.8664336 C9.32545989,18.9535872 9.15834863,19 8.74539808,19 L8.25460192,19 C7.84165137,19 7.67454011,18.9535872 7.51157715,18.8664336 C7.34861419,18.7792801 7.2207199,18.6513858 7.13356635,18.4884229 C7.04641281,18.3254599 7,18.1583486 7,17.7453981 L7,17.2546019 C7,16.8416514 7.04641281,16.6745401 7.13356635,16.5115771 C7.2207199,16.3486142 7.34861419,16.2207199 7.51157715,16.1335664 C7.67454011,16.0464128 7.84165137,16 8.25460192,16 L8.74539808,16 Z M20.1541722,6 L7.8458278,6 C6.50854969,6 6.02362033,6.13923842 5.53473144,6.40069906 C5.04584256,6.66215969 4.66215969,7.04584256 4.40069906,7.53473144 C4.15557971,7.99306478 4.01788223,8.44791805 4.00162755,9.60486756 L4,9.8458278 L3.999,10 L23.999,10 L24,9.8458278 C24,8.50854969 23.8607616,8.02362033 23.5993009,7.53473144 C23.3378403,7.04584256 22.9541574,6.66215969 22.4652686,6.40069906 C22.0069352,6.15557971 21.5520819,6.01788223 20.3951324,6.00162755 L20.1541722,6 Z" id="↳-Icon-Color" fill="currentColor" fill-rule="nonzero"></path>
        </g>
    </g>
</svg>

<svg width="28" height="28" xmlns="http://www.w3.org/2000/svg"><g fill="none" fill-rule="evenodd"><path d="M0 0H28V28H0z"/><path d="M19.59 4c2.23 0 3.037.232 3.852.668a4.543 4.543 0 0 1 1.89 1.89c.436.815.668 1.623.668 3.852v7.18c0 2.23-.232 3.037-.668 3.852a4.543 4.543 0 0 1-1.89 1.89c-.815.436-1.623.668-3.852.668H8.41c-2.23 0-3.037-.232-3.852-.668a4.543 4.543 0 0 1-1.89-1.89C2.232 20.627 2 19.82 2 17.59v-7.18c0-2.23.232-3.037.668-3.852a4.543 4.543 0 0 1 1.89-1.89C5.373 4.232 6.18 4 8.41 4h11.18zM24 13h-20L4 18.154c0 1.337.14 1.822.4 2.311.262.49.646.873 1.135 1.134.458.245.913.383 2.07.4l.24.001h12.31c1.336 0 1.821-.14 2.31-.4a2.726 2.726 0 0 0 1.134-1.135c.245-.458.383-.913.4-2.07l.001-.24L23.999 13zM8.745 16c.413 0 .58.046.743.134.163.087.291.215.378.378.088.163.134.33.134.743v.49c0 .413-.046.58-.134.743a.909.909 0 0 1-.378.378c-.163.088-.33.134-.743.134h-.49c-.413 0-.58-.046-.743-.134a.909.909 0 0 1-.378-.378c-.088-.163-.134-.33-.134-.743v-.49c0-.413.046-.58.134-.743a.909.909 0 0 1 .378-.378c.163-.088.33-.134.743-.134h.49zm11.41-10H7.844c-1.336 0-1.821.14-2.31.4A2.726 2.726 0 0 0 4.4 7.536c-.245.458-.383.913-.4 2.07L4 9.845 3.999 10h20L24 9.846c0-1.337-.14-1.822-.4-2.311A2.726 2.726 0 0 0 22.464 6.4c-.458-.245-.913-.383-2.07-.4L20.155 6z" fill="currentColor" fill-rule="nonzero"/></g></svg>
